X: 2
T: The Foxhunter's Reel
M: 4/4
L: 1/8
Z: Contributed 2016-06-19 02:57:49 by Rob robertclothier@bigpond.com
K: Gmaj
|:"G"dGBG dGBG|"G"dGBG "D"AGEG|"G"dGBG dGBG|"D7"GABG "C"AGEG:|]
|:"G"!roll!D3 B BABG|"G"DGBG "D"AGEG|"G"!roll!D3 B BABG|"D7"AcBG "C"AGEG:|]
|:"G"gedB G2 Bd|"G"gdBd "Am"eA !roll!A2|"G"gedB "Em"GBdB|"Am"ABcd "D7"eA !roll!A2:|]
|:"G"dggf g4|"G"dg !roll!g2 "C"egdB|"G"dggf !roll!g3d|"C"(3e/f/g/ dB "D"AGAB:|]
|:"G"!roll!G2 BG dGBG|"G"GB !roll!B2 "D"AGAB|"G"!roll!G2 BG dGBG|"C"(3e/f/g/ dB "D"AGAB:|]




